dist/intermediate-svg/nophoto.svg

<?xml version="1.0" encoding="utf-8"?><svg width="23.79" height="24" fill="none" xmlns="http://www.w3.org/2000/svg" viewBox="0 0 115 116"><mask id="eqa" maskUnits="userSpaceOnUse" x="0" y="0" width="115" height="116"><circle cx="57.5" cy="57.75" r="57.5" fill="#C4C4C4"/></mask><g mask="url(#eqa)"><path d="M46.1547 72.6062L45.7773 77.0783L28.7321 81.6985C19.4911 84.2029 12.2048 90.1966 9.07019 97.8736L4.5 109.064C4.5 109.064 55.2983 128.49 110.5 109.153L105.93 97.9631C102.795 90.2864 95.5089 84.2921 86.2679 81.7877L68.8725 77.0793L68.2979 72.6062" fill="#CCC"/><path d="M69.052 77.7594C69.052 89.9376 45.7773 89.819 45.7773 77.6569V70.0824L69.052 69.7606V77.7594Z" fill="#DDD"/><path d="M40.2176 55.986C40.2176 55.986 31.8537 43.0696 32.097 34.9477C32.3406 26.8255 37.0485 28.3417 38.1803 28.7341C38.1803 28.7341 43.5896 21.5412 55.5627 19.4795C67.5359 17.4178 77.2977 20.5432 77.2977 20.5432C77.2977 20.5432 74.1919 24.5094 75.5679 27.6551C76.944 30.8005 82.2084 34.9436 79.0683 46.8579L72.9636 56.4827L72.6275 42.6934L72.5529 38.3994L57.414 38.9594L40.0455 36.3443L43.7275 43.8134L40.2176 55.986Z" fill="#CCC"/><path d="M35.1725 46.5966C35.1725 46.5966 32.4859 48.5921 32.3777 52.3447C32.2692 56.0973 33.873 60.1078 38.4451 60.4821C38.4451 60.4821 40.0344 67.9405 45.7769 72.6065C51.5194 77.2726 57.9896 77.0786 57.9896 77.0786C57.9896 77.0786 72.6655 74.5429 75.8669 60.7007C75.8669 60.7007 81.8891 59.9559 82.452 55.0589C83.0146 50.1618 79.0684 46.8582 79.0684 46.8582L74.3295 54.2011L73.8182 42.8895L74.7228 36.3446L57.4995 37.267L39.3772 35.8865L41.0495 42.8797L40.1243 54.5396L35.1725 46.5966Z" fill="#DDD"/><circle cx="57.5" cy="57.75" r="57" stroke="#CCC"/></g></svg>

<?xml version="1.0" encoding="utf-8"?><svg width="23.79" height="24" fill="none" xmlns="http://www.w3.org/2000/svg" viewBox="0 0 115 116"><mask id="fia" maskUnits="userSpaceOnUse" x="0" y="0" width="115" height="116"><circle cx="57.5" cy="57.75" r="57.5" fill="#C4C4C4"/></mask><g mask="url(#fia)"><path d="M46.155 72.606l-.378 4.472-17.045 4.62c-9.24 2.505-16.527 8.499-19.662 16.176l-4.57 11.19s50.798 19.426 106 .089l-4.57-11.19c-3.135-7.677-10.421-13.67-19.662-16.175l-17.395-4.709-.575-4.473" fill="#CCC"/><path d="M69.052 77.76c0 12.178-23.275 12.059-23.275-.103v-7.575l23.275-.321v7.998z" fill="#DDD"/><path d="M40.218 55.986s-8.364-12.916-8.121-21.038c.244-8.122 4.951-6.606 6.083-6.214 0 0 5.41-7.193 17.383-9.255 11.973-2.061 21.735 1.064 21.735 1.064s-3.106 3.966-1.73 7.112c1.376 3.145 6.64 7.289 3.5 19.203l-6.104 9.625-.337-13.79-.074-4.294-15.139.56-17.369-2.615 3.682 7.47-3.51 12.172z" fill="#CCC"/><path d="M35.172 46.597s-2.686 1.995-2.794 5.748c-.109 3.752 1.495 7.763 6.067 8.137 0 0 1.59 7.459 7.332 12.124 5.742 4.667 12.213 4.473 12.213 4.473S72.665 74.543 75.867 60.7c0 0 6.022-.745 6.585-5.642.563-4.897-3.384-8.2-3.384-8.2L74.33 54.2l-.51-11.312.904-6.544-17.224.922-18.122-1.38 1.672 6.993-.925 11.66-4.952-7.943z" fill="#DDD"/><circle cx="57.5" cy="57.75" r="57" stroke="#CCC"/></g></svg>
